packages/astro-components-stencil/src/icons/youtube-searched-for.svg

<svg width="24" height="24" viewBox="0 0 24 24" fill="none" xmlns="http://www.w3.org/2000/svg">
<path d="M17.01 14H16.21L15.94 13.73C17.09 12.39 17.7 10.59 17.45 8.64C17.11 6 15.1 3.78 12.5 3.18C8.25997 2.2 4.50998 5.53 4.50998 9.5H2.40998C1.93998 9.5 1.72998 10.09 2.09998 10.39L5.49998 13.14C5.68998 13.34 6.00998 13.35 6.20998 13.15L9.10998 10.36C9.42998 10.05 9.20997 9.5 8.75997 9.5H6.50997C6.50997 7.01 8.50998 5.02 10.97 5C13.41 4.98 15.51 7.05 15.51 9.49C15.51 11.97 13.49 14 11.01 14C10.56 14 10.12 13.93 9.70998 13.81C9.36998 13.71 8.99998 13.81 8.74998 14.07C8.21997 14.6 8.42998 15.52 9.13998 15.73C9.72998 15.9 10.36 16 11.01 16C12.62 16 14.09 15.41 15.23 14.43L15.5 14.7V15.49L19.77 19.74C20.18 20.15 20.84 20.15 21.25 19.74C21.66 19.33 21.66 18.66 21.25 18.25L17.01 14Z" fill="black"/>
</svg>

<svg xmlns="http://www.w3.org/2000/svg" viewBox="0 0 24 24"><g xmlns="http://www.w3.org/2000/svg" id="youtube-searched-for" fill-rule="nonzero">
            <path d="M17.01 14h-.8l-.27-.27a6.48 6.48 0 001.51-5.09C17.11 6 15.1 3.78 12.5 3.18 8.26 2.2 4.51 5.53 4.51 9.5h-2.1a.5.5 0 00-.31.89l3.4 2.75c.19.2.51.21.71.01l2.9-2.79c.32-.31.1-.86-.35-.86H6.51c0-2.49 2-4.48 4.46-4.5 2.44-.02 4.54 2.05 4.54 4.49 0 2.48-2.02 4.51-4.5 4.51-.45 0-.89-.07-1.3-.19-.34-.1-.71 0-.96.26-.53.53-.32 1.45.39 1.66.59.17 1.22.27 1.87.27 1.61 0 3.08-.59 4.22-1.57l.27.27v.79l4.27 4.25c.41.41 1.07.41 1.48 0 .41-.41.41-1.08 0-1.49L17.01 14z"/>
        </g></svg>
